X:19072
T:Xiraldilla (CT 390)
R:Xiraldilla
C:Tradicional
S:Msica Tradicional Asturiana, (C) Tello & Tito. Asturies, 2001.
S:http://pagina.de/MusTradAst <telloytito@asturies.org>
N:Xiraldilla, transcrita en Uviu.
N:Las sealadas con los nmeros CT 390 y CT 392, son variantes de una misma meloda.
N:Estas xiraldillas son, ya de antiguo, muy corrientes en las romeras que se celebran en el concejo de Uviu.
O:Uviu
A:Asturies
Z:Cancioneru de Torner 390
M:2/4
L:1/8
Q:1/4=120
W:Tienes unos ojitos
W:y unas pestaas
W:y una lengua parlera
W:con que me engaas.
W:
W:Estribillu:
W:Con el alsa, piripi,
W:tmbamela, tmbamela, tmbamela;
W:con el alsa, piripi,
W:tmbamela, tmbamela y est.
K:G
|de/d/ cd|B2 B2|cc Bc|d2 z2|
de/d/ cd|B2 B2|cc AA|B2 zB/c/|
dd/d/ dc|BB/B/ B2|cc/c/ c2|dd/d/ dB/c/|
dd/d/ dc|BB/B/ B2|cc/c/ AA|B2 ||
